X:1
T:The Well-Tempered Clavier Book I - XXIII
T:BWV 868    (A = 415 Hz)
T:J. S. Bach
%%score { ( 1 2 5 ) | ( 3 4 ) }
L:1/8
M:4/4
K:B
V:1 treble 
V:2 treble 
V:5 treble 
V:3 bass 
V:4 bass 
V:1
"^Praeludium" z/ B/A/B/ c/A/B/c/ z/ d/c/d/ e/c/d/e/ | z/ e/d/e/ f/c/d/e/ d4 | %2
 c4- c/A/G/A/ B/G/A/B/- | B/G/F/G/ A/F/G/A/- A2 GF | ^E2 F4 E2 | F8 | %6
 z/ G/^^F/G/ A/F/G/A/ F/A/G/A/ B/G/A/B/ | c/g/^^f/g/ a/f/g/a/ d4 | c4- c/d/c/d/ e/c/d/e/ | %9
 A/B/A/B/ c/A/B/c/ Bdgf | ^e4 z cf=e | d4 e4- | e/c/B/c/ d/B/c/d/- d2 cB | A2 B4 A2 | %14
 z/ =A/B/A/ G/B/A/G/ F4- | F/F/G/F/ ^E/G/F/^E/- E4 | A2 B2 c2 d2 | z/ e/f/e/ d/f/e/d/ c2 B2- | %18
 B2 A2 !fermata!B4 | z8 |[M:4/4]"^Fuga" z8 | z8 | z FDE F2 B,D/^E/ | %23
 FG/A/ BA A/4G/4A/4G/4A/4G/4A/4G/4 A/4G/4A/4G/4A/4G/4A/4G/4 | z BAB c2 FG/A/ | Bc/d/ ed c4- | %26
 cB/A/ Bc/B/ A/G/F/E/ DB | AB/c/ d/^e/f- fe/d/ e2 | fc/B/ cd ^B2 cd | e/d/e/f/ e/d/c/B/ A2 Bc | %30
 ddef g/=a/g/f/ e/d/c/B/ | AB/c/ dc B2- B/c/d | e/f/g- gf/e/ d2 z/ d/c/B/ | A2 Bc d4- | dGAB cABc | %35
 d4 c4- | cB/c/ d/^e/f- f/e/f/g/ e>f | ffgf e2 ba/g/ | fe/d/ cd e4 | d2 z f- f/^e/f/g/ a/g/a/b/ | %40
 ^e2 f2- f=e/d/ c/B/c/d/ | e/f/g- g/g/f/e/ d2- d/cB/- | BA/B/ c/d/ e2 d/e/ f/g/=a- | %43
 a/g/=a/g/ f/e/d/c/ ^Bc d2- | dc/^B/ c2- c/e/d/c/ B2 | cG/F/ G=A ^E2 FG | %46
 =A/G/A/B/ A/G/F/E/ D2 EF | GGAB c4- | cB z2 z4 | z8 | z fde f2 Bd/^e/ | fg/a/ ba g4 | %52
 f2- fe/d/ c/d/e- e/g/f/e/ | !fermata!d8 |] %54
V:2
[I:staff +1] D2 E2 F2 G2 | A4[I:staff -1] z/ A/G/A/ B/G/A/B/ | ^E2 F2- F4 | ^E2 =E2 D4- | %4
 DCB,A, B,/A,/G,/A,/ B,/G,/A,/B,/ | A,2 B,2 C2 D2- | D2[I:staff +1] C4 B,2 | %7
 A, G,2 ^^F,- F,/[I:staff -1]A/G/A/ B/G/A/B/ | E/B/A/G/ ^^F4 G2- | G2 ^^F2 G2 z2 | %10
 z/ c/B/c/ =d/B/c/d/ =A4 | z/ =A/G/A/ B/F/G/A/ G2 ^AB | A2 =A2 G4- | GFED E/D/C/D/ E/C/D/E/ | %14
 D2 E2- E2 DC | z4 B/c/B/c/ =d/B/c/d/ | F2 G2 A2 B2 | c2 B2 z/ E/F/E/ D/F/E/D/ | z2 F2 F4 | x8 | %20
[M:4/4] x8 | x8 | x8 | x8 | F z z G/F/ E/D/[I:staff +1]C/B,/ A,F | %25
 DE/F/ G/[I:staff -1]A/B- BA/G/ A/B/A/G/ | F3 E- ED/C/ D/E/F/G/ | C2 z d/c/ BG z/ d/c/B/ | %28
 A2 z/ G/F/E/ D2 EF | G4- GCDE | FBcd e z z2 | z2 z F DE/F/ G/A/B- | BA/G/ A2- AG/^^F/ GA | %33
 F2 GA B/A/B/c/ B/A/G/F/ | ^E2 FG ACD=E | FF^EF G2 CD/=E/ | FG/A/ BA G2- G/A/B | A2 ^Bd- dc z2 | %38
 z/ D/E/F/ G/F/E/D/ C2 c2- | cBdc B2 f^e/d/ | cB/A/ GA B4- | B2 Ac- c/c/B/A/ GF | %42
 E2 E>F G/A/B- Bc/d/ | e z z2 z4 | x8 | x8 | x8 | x8 | z BAB c2 FG/A/ | Bc/d/ ed c4- | %50
 cB/A/ Bc/B/ A/G/F/E/ DB | AB/c/ d/^e/f- f=e/d/ e2- | ed/c/ B4 A2 | B8 |] %54
V:3
 B,8- | B,8- | B,/G,/F,/G,/ A,/F,/G,/A,/ D,2 G,2 | C,2 F,2 B,,/A,/G,/A,/ B,/G,/A,/B,/ | %4
 C,/D,/B,,/C,/ D,/B,,/C,/D,/ G,,2 C,2 | %5
 F,,/C,/B,,/C,/ D,/B,,/C,/D,/ F,,/A,,/G,,/A,,/ B,,/G,,/A,,/B,,/ | E,,2 E,2 D,4- | %7
 D,2 C,2 B,,A,, G,,2- | G,,/G,/^^F,/G,/ A,/F,/G,/A,/ E,EDC | DCDD, G,/A,/G,/A,/ B,/G,/A,/B,/ | %10
 C,C/B,/ =A,G, F,/G,/F,/G,/ A,/F,/G,/A,/ | B,,B,/=A,/ G,F, E,/D,/E,/D,/ C,/E,/D,/C,/ | %12
 F,2 B,,2 E,/D/C/D/ E/C/D/E/ | F,/G,/E,/F,/ G,/E,/F,/G,/ C,2 F,2 | %14
 B,,4- B,,/C,/D,/E,/ F,/=A,/G,/F,/ | B,8 | z/ E/F/E/ D/F/E/D/ z/ C/D/C/ B,/D/C/B,/ | A,2 B,2 F,4- | %18
 F,/D,/C,/D,/ E,/C,/D,/E,/ D,4 | z8 |[M:4/4] z B,A,B, C2 F,G,/A,/ | %21
 B,C/D/ ED D/4C/4D/4C/4D/4C/4D/4C/4 D/4C/4D/4C/4D/4C/4D/4C/4 | B,3 C/B,/ A,/G,/F,/E,/ D,B, | %23
 A,B,/C/ D/=F/ ^F2 E/D/ E/B,/E- | EDCB,- B,A,/G,/ A,D | G,2 z G/F/ EC z F/E/ | DCB,G, F,2 z2 | %27
 F,G,/A,/ B,A, G,4 | F,2 z2 z G,/=A,/ G,/F,/E,/D,/ | C,CDE FF,/G,/ F,/E,/D,/C,/ | z4 z B,A,B, | %31
 C2 F,G,/A,/ B,C/D/ ED | C4 B, z z2 | z D/E/ D/C/B,/A,/ G,2 z2 | %34
 z C/D/ C/B,/A,/G,/ F,/E,/F,/G,/ F,/E,/D,/C,/ | B,, z z2 z B,A,G, | %36
 F,2- F,/G,/F,/^E,/ D,/C,/D,/B,,/ C,2- | C,F,/E,/ F,/G,/A,/^B,/ C=B,/A,/ G,/F,/G,/A,/ | %38
 B,4- B,/B,/A,/G,/ F,/E,/D,/C,/ | B,,/C,/D,/E,/ F,/G,/A,/F,/ G,/C,/D,/=F,/ ^F,/B,,/B,- | %40
 B,/A,/B,/C/ D/C/B,/A,/ G,4- | G,F,/E,/ F,2- F,2 z2 | z8 | z EDE F2 ^B,C/[I:staff -1]D/ | %44
 EF/G/ =AG F2- F/A/G/F/ | E2[I:staff +1] z/ C/B,/=A,/ G,2 A,[I:staff -1]B, | C4- CF,G,=A, | %47
 B,B,CD E/B/A/G/ F/E/D/C/ | D[I:staff +1] z z2 z/ D/C/B,/ A,/G,/F,/E,/ | %49
 F,/D,/E,/F,/ G,/A,/B,- B,2 A,>G, | F,3 E,- E,D,/C,/ D,G, | C,2 z2 z4 | z4 z C/D/ C/B,/A,/G,/ | %53
 !fermata!F,8 |] %54
V:4
 x8 | x8 | x8 | x8 | x8 | x8 | x8 | x8 | x8 | x8 | x8 | x8 | x8 | x8 | x8 | G,8 | F,8- | %17
 F,/F,/E,/F,/ G,/E,/F,/G,/ A,,2 B,,2 | F,,4 !fermata!B,,4 | x8 |[M:4/4] x8 | x8 | x8 | x8 | x8 | %25
 x8 | z F,D,E, F,2 B,,D,/^E,/ | x8 | x8 | x8 | B,,/A,,/B,,/C,/ B,,/=A,,/G,,/F,,/ E,, z z2 | %31
 z E, D,E,/F,/ G,3 F, | E,2 F,2 B,B,,/A,,/ B,,C, | D,2 z C, B,,G,,A,,B,, | C,2 z B,, A,,4- | %35
 A,,/A,,/B,,/C,/ B,,/A,,/G,,/F,,/ ^E,,^E,F,E, | D,3 C, B,,G,,C,C,, | F,, z z2 z4 | x8 | x8 | %40
 z4 z B,,A,,B,, | C,2 F,,G,,/A,,/ B,,C,/D,/ E,C, | C,4 B,,B,/C/ B,/=A,/G,/F,/ | %43
 E,2 =A,2 D,/C/^B,/^A,/ G,/F,/E,/D,/ | C,/B,,/=A,,/G,,/ F,,/E,,/D,,/C,,/ D,,E,,/F,,/ G,,G,, | %45
 C,,2 z2 z C,/=D,/ C,/B,,/=A,,/G,,/ | F,,F,G,=A, B,B,,/C,/ B,,/=A,,/G,,/F,,/ | %47
 F,,/D,/E,/F,/ E,/D,/C,/B,,/ A,,F,,G,,A,, | B,,/C,/D,/E,/ F,/G,/A,/B,/ E,4 | %49
 D,2 C,G,/F,/ E,/D,/C,/D,/ E,/G,/F,/E,/ | D,2 G,,2 F,,4- | %51
 F,,2 z/ G,,/A,,/B,,/ C,/D,/E,/F,/ G,/A,/B,/G,/ | A,/G,/F,/E,/ D,/C,/D,/E,/ F,4 | B,,8 |] %54
V:5
 x8 | x8 | x8 | x8 | x8 | x8 | x8 | x8 | x8 | x8 | x8 | x8 | x8 | x8 | x8 | x8 | x8 | x8 | C4 B,4 | %19
 x8 |[M:4/4] x8 | x8 | x8 | x8 | x8 | x8 | x8 | x8 | x8 | x8 | x8 | x8 | x8 | x8 | x8 | x8 | x8 | %37
 x8 | x8 | x8 | x8 | x8 | x8 | x8 | x8 | x8 | x8 | x8 | x8 | x8 | x8 | x8 | x8 | x8 |] %54

